X:21
T:Mug Of Brown Ale, The
T:Clare
T:Clare , The
T:Ginger's Favourite
T:Paddy In London
R:jig
M:6/8
L:1/8
K:Ador
g/2f/2|:eAA fAA|~g3 age|dBG GAG|~B3 Bcd|
eAA fAA|~g3 age|dBd gdB|ABA ABd:|
efg ~a3|aba age|dBd ~g3|gba ged|
efg ~g3|aba age|dBd gdB|ABA ABd|
efg ~a3|aba age|dBd ~g3|gba ged|
efg a2b|^c'ac' age|dBd gdB|ABA A2||
W:Variation from pchaffee
EAA ABd| edB ccA| BGG DGG| BdB BAG| EAA ABd| edB efg| edc BcD| eAA A
